X:28
T:A Hornpipe
S:Petrie's Collection of Strathspey Reels and Country Dances &c., 1790
Z:Steve Wyrick , 3/19/04
N:Petrie's First Collection, page 13
L:1/8
M:2/4
R:Hornpipe
K:G
  B/c/|{^c }dB/G/ B/=c/A/F/|GDDB,      | CeB,d             |c/B/A/G/ G/F/E/D/|
       {^c }dB/G/ B/=c/A/F/|Gg a/g/f/e/| f/a/f/d/ e/g/e/^c/| dDD            :|
|:d/e/|=f/e/d/c/ B/f/e/d/ |cA Ac/d/   | e/d/c/B/ A/e/d/c/ |BGGD             |
        EgDf              |CeB,d      |{c }BA/G/  F/G/A/F/ |GDG,            :|
